X:20
T:La queue du renard
R:MARAICHINE
A:Poitou
O:France
M:2/4
L:1/8
Q:1/4=150
K:Fdor
EB BG|BA/2G/2 FE|
EB BA|B2F2:|
|:FG GE|GG/2F/2 EE|DF AC|F2E2:||
